img/service-contacts__04.svg

<svg width="25" height="25" viewBox="0 0 25 25" fill="none" xmlns="http://www.w3.org/2000/svg">
<g clip-path="url(#clip0)">
<path d="M23.4178 13.7207C23.4592 13.3299 23.4804 12.9341 23.4804 12.5414C23.4804 9.5957 22.3333 6.82641 20.2504 4.74358C18.1674 2.66075 15.3981 1.51367 12.4526 1.51367C12.1705 1.51367 11.885 1.52454 11.604 1.54591C11.3351 1.56631 11.1337 1.80092 11.1543 2.06986C11.1747 2.33879 11.4095 2.54002 11.678 2.51961C11.9346 2.50015 12.1951 2.49024 12.4526 2.49024C17.9948 2.49024 22.5038 6.99903 22.5038 12.5414C22.5038 12.9732 22.4759 13.4087 22.421 13.8359C22.4014 13.9893 22.4553 14.1428 22.5669 14.25C23.4756 15.124 23.9761 16.2995 23.9761 17.5595C23.9761 20.0911 21.9163 22.1507 19.3849 22.1507C18.6393 22.1507 17.9279 21.9775 17.2706 21.6359C17.0314 21.5113 16.7365 21.6046 16.6122 21.8438C16.4878 22.0831 16.5809 22.3778 16.8203 22.5022C17.6069 22.9111 18.4936 23.1272 19.3849 23.1272C22.455 23.1272 24.9526 20.6295 24.9526 17.5595C24.9526 16.1137 24.4094 14.76 23.4178 13.7207Z" fill="black"/>
<path d="M15.0613 22.2474C14.8021 22.3214 14.6518 22.5917 14.726 22.8511C14.7872 23.0655 14.9827 23.2053 15.1952 23.2053C15.2396 23.2053 15.2848 23.1992 15.3297 23.1864L15.3299 23.1862C15.5893 23.1122 15.7392 22.8419 15.6652 22.5827C15.5912 22.3235 15.3205 22.1734 15.0613 22.2474Z" fill="black"/>
<path d="M13.2277 22.5629C12.9712 22.5823 12.7106 22.5922 12.4532 22.5922C6.91096 22.5922 2.40197 18.0835 2.40197 12.5413C2.40197 12.1092 2.42982 11.6738 2.48475 11.2466C2.5044 11.0932 2.45023 10.9397 2.33884 10.8325C1.43018 9.95852 0.92969 8.78302 0.92969 7.52302C0.92969 4.99139 2.98925 2.93164 5.52088 2.93164C6.26646 2.93164 6.97771 3.10502 7.63518 3.44663C7.87417 3.57099 8.16905 3.4781 8.2936 3.23873C8.41796 2.99935 8.32488 2.70448 8.0855 2.58012C7.29891 2.17118 6.41199 1.95508 5.52088 1.95508C2.4508 1.95508 -0.046875 4.45295 -0.046875 7.52302C-0.046875 8.96879 0.496339 10.3224 1.48797 11.3618C1.44658 11.7526 1.42541 12.1483 1.42541 12.5413C1.42541 15.4868 2.57249 18.2561 4.65532 20.3389C6.73834 22.4217 9.50763 23.5688 12.4532 23.5688C12.7352 23.5688 13.0208 23.5579 13.3017 23.5366C13.5707 23.5162 13.7721 23.2816 13.7515 23.0126C13.7311 22.7437 13.4961 22.5425 13.2277 22.5629Z" fill="black"/>
<path d="M10.9693 8.77351C11.3973 8.45994 12.2785 8.45383 12.9619 8.58716C13.9093 8.7716 14.7362 9.21143 15.1197 9.73519C15.4547 10.1918 15.9473 10.4909 16.5071 10.5773C17.0669 10.6635 17.6268 10.5266 18.0836 10.1916C18.5404 9.85688 18.8394 9.36421 18.9257 8.8044C19.0121 8.2446 18.8751 7.68479 18.5402 7.22798C17.7874 6.20049 16.5966 5.34657 15.1878 4.82357C13.8445 4.3248 12.3899 4.15027 11.092 4.33147C8.70187 4.66545 7.02378 6.15452 6.60283 8.31498C6.41572 9.27495 6.57365 10.2649 7.05945 11.1775C7.5094 12.0227 8.22427 12.7492 9.07247 13.2232C10.0817 13.7874 11.0683 14.0136 12.0226 14.2325C12.726 14.3937 13.4533 14.5606 13.9288 14.849C14.1899 15.0073 14.378 15.2444 14.3858 15.4254C14.3873 15.4628 14.3925 15.5766 14.1907 15.7245C13.7205 16.0689 12.7292 16.0579 12.0071 15.9017C11.0763 15.7002 10.2695 15.2633 9.90141 14.7611C9.56667 14.3043 9.074 14.0052 8.514 13.919C7.95438 13.8328 7.39438 13.9697 6.93757 14.3044C6.48095 14.6394 6.18188 15.132 6.09548 15.6919C6.00926 16.2517 6.14621 16.8115 6.48114 17.2683C7.45256 18.5941 9.18329 19.6345 11.1105 20.0515C11.7428 20.1882 12.3663 20.2554 12.9677 20.2554C14.3968 20.2554 15.7011 19.8754 16.6979 19.1449C17.5962 18.4867 18.2365 17.5494 18.5007 16.5057C18.77 15.4426 18.6354 14.3138 18.1215 13.3273C17.6859 12.4909 16.9758 11.7454 16.1222 11.2277C15.1441 10.6347 14.1132 10.3997 13.2034 10.1922C12.4492 10.0203 11.7367 9.85784 11.1337 9.52081C10.9279 9.40579 10.7891 9.23203 10.7796 9.07811C10.7731 8.97301 10.837 8.87059 10.9693 8.77351ZM9.8049 9.138C9.83503 9.62991 10.1537 10.0919 10.6573 10.3732C11.3827 10.7789 12.198 10.9647 12.9864 11.1443C13.8647 11.3446 14.773 11.5518 15.616 12.0629C16.3189 12.489 16.9012 13.0982 17.2554 13.7786C18.087 15.3754 17.6205 17.2582 16.1207 18.3574C14.9296 19.2302 13.1788 19.4997 11.317 19.0969C9.61664 18.7291 8.10316 17.8296 7.26869 16.6911C7.08806 16.4447 7.01425 16.1426 7.06079 15.8406C7.10733 15.5385 7.26869 15.2728 7.51512 15.0922C7.71348 14.9468 7.94771 14.8705 8.18899 14.8705C8.24754 14.8705 8.30648 14.8751 8.36542 14.8843C8.66754 14.9308 8.93324 15.092 9.11386 15.3384C9.63228 16.0459 10.6115 16.599 11.8007 16.8563C12.1227 16.9259 13.7792 17.2366 14.768 16.5122C15.1697 16.2179 15.3805 15.8168 15.3614 15.3829C15.3391 14.8713 14.9841 14.3468 14.4352 14.014C13.825 13.6439 13.0197 13.4593 12.2408 13.2806C11.3127 13.0679 10.4362 12.8669 9.54893 12.371C8.09343 11.5573 7.27613 9.96617 7.56147 8.5019C7.90384 6.74389 9.23994 5.57621 11.227 5.29869C13.6515 4.95994 16.4572 6.03741 17.7526 7.80514C17.9333 8.05157 18.0071 8.3537 17.9605 8.65563C17.914 8.95756 17.7526 9.22345 17.5062 9.40408C17.2598 9.5847 16.9578 9.65852 16.6557 9.61198C16.3538 9.56544 16.0881 9.40427 15.9075 9.15784C15.3767 8.43342 14.3453 7.86179 13.1489 7.62852C12.7283 7.5467 11.2867 7.33021 10.392 7.98596C9.98609 8.28332 9.77743 8.69263 9.8049 9.138Z" fill="black"/>
<path d="M9.70315 2.85568C9.74225 2.85568 9.78212 2.85091 9.82198 2.84099C10.0835 2.77557 10.2426 2.51045 10.1771 2.24895C10.1119 1.98726 9.84659 1.82818 9.58509 1.89361H9.58471C9.32302 1.95903 9.16413 2.22415 9.22956 2.48565C9.28506 2.70748 9.48438 2.85568 9.70315 2.85568Z" fill="black"/>
</g>
<defs>
<clipPath id="clip0">
<rect width="25" height="25" fill="white"/>
</clipPath>
</defs>
</svg>

<svg width="25" height="25" fill="none" xmlns="http://www.w3.org/2000/svg"><g clip-path="url(#clip0)" fill="#000"><path d="M23.418 13.72c.041-.39.062-.786.062-1.179 0-2.945-1.147-5.715-3.23-7.797a10.956 10.956 0 00-7.797-3.23c-.282 0-.568.01-.849.032a.488.488 0 10.074.974c.257-.02.517-.03.775-.03 5.542 0 10.05 4.509 10.05 10.051 0 .432-.027.868-.082 1.295a.488.488 0 00.146.414 4.554 4.554 0 011.41 3.31 4.597 4.597 0 01-6.706 4.076.488.488 0 10-.45.866 5.582 5.582 0 002.564.625 5.574 5.574 0 005.568-5.567c0-1.446-.544-2.8-1.535-3.84zm-8.357 8.527a.488.488 0 10.269.94.488.488 0 10-.269-.94zm-1.833.316c-.257.02-.517.03-.775.03-5.542 0-10.051-4.51-10.051-10.052 0-.432.028-.867.083-1.294a.489.489 0 00-.146-.415 4.554 4.554 0 01-1.41-3.309 4.597 4.597 0 016.706-4.076.488.488 0 10.45-.867 5.582 5.582 0 00-2.564-.625A5.574 5.574 0 00-.047 7.523c0 1.446.543 2.8 1.535 3.839-.041.39-.063.786-.063 1.18 0 2.945 1.147 5.714 3.23 7.797a10.956 10.956 0 007.798 3.23c.282 0 .568-.011.849-.032a.488.488 0 10-.074-.974z"/><path d="M10.97 8.774c.427-.314 1.308-.32 1.992-.187.947.185 1.774.624 2.158 1.148.335.457.827.756 1.387.842.56.087 1.12-.05 1.577-.385.456-.335.755-.828.842-1.388a2.1 2.1 0 00-.386-1.576c-.753-1.028-1.943-1.881-3.352-2.404-1.344-.5-2.798-.674-4.096-.493-2.39.334-4.068 1.824-4.49 3.984-.186.96-.028 1.95.457 2.863a5.147 5.147 0 002.013 2.045c1.01.564 1.996.79 2.95 1.01.704.16 1.431.328 1.907.616.26.158.449.395.457.576.001.038.007.152-.195.3-.47.344-1.462.333-2.184.177-.93-.202-1.737-.639-2.106-1.14a2.106 2.106 0 00-1.387-.843c-.56-.086-1.12.05-1.576.385a2.108 2.108 0 00-.843 1.388c-.086.56.051 1.12.386 1.576.972 1.326 2.702 2.366 4.63 2.784a8.803 8.803 0 001.857.203c1.429 0 2.733-.38 3.73-1.11a4.734 4.734 0 001.803-2.64 4.488 4.488 0 00-.38-3.178c-.435-.836-1.145-1.582-1.999-2.1-.978-.592-2.009-.827-2.919-1.035-.754-.172-1.466-.334-2.07-.671-.205-.115-.344-.289-.353-.443-.007-.105.057-.207.19-.304zm-1.165.364c.03.492.349.954.852 1.235.726.406 1.541.592 2.33.771.878.2 1.786.408 2.629.919.703.426 1.285 1.035 1.64 1.716.831 1.596.364 3.48-1.135 4.578-1.191.873-2.942 1.143-4.804.74-1.7-.368-3.214-1.267-4.048-2.406a1.136 1.136 0 01-.208-.85c.046-.302.208-.568.454-.749a1.135 1.135 0 01.85-.208c.303.047.568.208.749.454.518.708 1.497 1.261 2.687 1.518.322.07 1.978.38 2.967-.344.402-.294.612-.695.593-1.13-.022-.51-.377-1.035-.926-1.368-.61-.37-1.415-.555-2.194-.733-.928-.213-1.805-.414-2.692-.91-1.456-.814-2.273-2.405-1.988-3.87.343-1.757 1.679-2.925 3.666-3.202 2.425-.34 5.23.738 6.526 2.506.18.247.254.549.207.85a1.137 1.137 0 01-.454.75c-.246.18-.548.254-.85.207a1.136 1.136 0 01-.748-.454c-.531-.725-1.563-1.296-2.76-1.53-.42-.081-1.861-.298-2.756.358-.406.297-.615.707-.587 1.152zm-.102-6.282a.488.488 0 10-.118-.962.488.488 0 00.118.962z"/></g><defs><clipPath id="clip0"><path fill="#fff" d="M0 0h25v25H0z"/></clipPath></defs></svg>
